app/dist/common/images/montauk-renewables.svg

<svg fill="none" height="18" viewBox="0 0 18 18" width="18" xmlns="http://www.w3.org/2000/svg"><path d="m0 0h18v18h-18z" fill="#f0f3fa"/><path d="m9 14c2.7614 0 5-2.2386 5-5.00002 0-2.76141-2.2386-4.99998-5-4.99998-2.76142 0-5 2.23857-5 4.99998 0 2.76142 2.23858 5.00002 5 5.00002z" fill="#007bbb"/><path d="m8.46667 5c-1.95699.2619-3.46667 1.94502-3.46667 3.9823 0 1.4311.87831 2.6875 2 3.3992v-.9815c-.19351-.174-.51994-.3932-.66667-.6094.0017-.0312.00277-.0502.00277-.0502l.6639-2.5404 1.46667 4c-.17783-.0309-.30019-.1409-.46667-.2v.842c.33958.0941.63061.158 1 .158s.66042-.0639 1-.158v-.842c-.16647.0591-.28884.1691-.46667.2l1.46667-4 .663 2.5469s.0014.02.0037.0529c-.1454.2126-.4759.4287-.6667.6002v.9815c1.1217-.7117 2-1.9681 2-3.3992 0-2.03728-1.5097-3.7204-3.46667-3.9823v.8c.28647.04827.54477.08067.79997.2l-1.33606 4-1.33057-4c.25714-.12092.51108-.15131.8-.2z" fill="#93c83e"/></svg>

<!-- by TradingView --><svg width="18" height="18" viewBox="0 0 18 18" fill="none" xmlns="http://www.w3.org/2000/svg">
<rect width="18" height="18" fill="#F0F3FA"/>
<path d="M9 14C11.7614 14 14 11.7614 14 8.99998C14 6.23857 11.7614 4 9 4C6.23858 4 4 6.23857 4 8.99998C4 11.7614 6.23858 14 9 14Z" fill="#007BBB"/>
<path d="M8.46667 5C6.50968 5.2619 5 6.94502 5 8.9823C5 10.4134 5.87831 11.6698 7 12.3815V11.4C6.80649 11.226 6.48006 11.0068 6.33333 10.7906C6.33503 10.7594 6.3361 10.7404 6.3361 10.7404L7 8.2L8.46667 12.2C8.28884 12.1691 8.16648 12.0591 8 12V12.842C8.33958 12.9361 8.63061 13 9 13C9.36939 13 9.66042 12.9361 10 12.842V12C9.83353 12.0591 9.71116 12.1691 9.53333 12.2L11 8.2L11.663 10.7469C11.663 10.7469 11.6644 10.7669 11.6667 10.7998C11.5213 11.0124 11.1908 11.2285 11 11.4V12.3815C12.1217 11.6698 13 10.4134 13 8.9823C13 6.94502 11.4903 5.2619 9.53333 5V5.8C9.8198 5.84827 10.0781 5.88067 10.3333 6L8.99724 10L7.66667 6C7.92381 5.87908 8.17775 5.84869 8.46667 5.8V5Z" fill="#93C83E"/>
</svg>
